images/Bluzelle.svg

<svg height="250" viewBox="0 0 250 250" width="250" xmlns="http://www.w3.org/2000/svg"><path d="m250 125c0 69.035156-55.964844 125-125 125s-125-55.964844-125-125 55.964844-125 125-125 125 55.964844 125 125zm0 0" fill="#18578c"/><g fill="#fff"><path d="m112.671875 95.386719-15.757813-15.757813-17.285156 17.285156 15.757813 15.757813c3.273437-7.804687 9.480469-14.011719 17.285156-17.285156zm0 0"/><path d="m154.613281 137.328125c-3.273437 7.804687-9.480469 14.011719-17.285156 17.285156l15.757813 15.757813 17.285156-17.285156zm0 0"/><path d="m81.789062 81.789062c5.960938-5.96875 5.960938-15.636718-.003906-21.601562s-15.636718-5.964844-21.601562 0-5.964844 15.632812 0 21.601562c5.964844 5.964844 15.636718 5.964844 21.605468 0zm0 0"/><path d="m168.210938 168.210938c-5.960938 5.96875-5.960938 15.636718.003906 21.601562s15.636718 5.964844 21.601562 0 5.964844-15.632812 0-21.601562c-5.964844-5.964844-15.636718-5.964844-21.605468 0zm0 0"/><path d="m95.386719 137.328125-15.757813 15.757813 17.285156 17.285156 15.757813-15.757813c-7.804687-3.273437-14.011719-9.480469-17.285156-17.285156zm0 0"/><path d="m154.613281 112.671875 15.757813-15.757813-17.285156-17.285156-15.757813 15.757813c7.804687 3.273437 14.011719 9.480469 17.285156 17.285156zm0 0"/><path d="m189.816406 81.789062c5.964844-5.96875 5.964844-15.636718 0-21.601562s-15.636718-5.964844-21.601562 0-5.964844 15.632812-.003906 21.601562c5.96875 5.964844 15.640624 5.964844 21.605468 0zm0 0"/><path d="m60.183594 168.210938c-5.964844 5.96875-5.964844 15.636718 0 21.601562s15.636718 5.964844 21.601562 0 5.964844-15.632812.003906-21.601562c-5.96875-5.964844-15.640624-5.964844-21.605468 0zm0 0"/><path d="m93.285156 120.417969h-20.230468v9.164062h20.230468c-.492187-3.035156-.492187-6.128906 0-9.164062zm0 0"/><path d="m156.714844 129.582031h20.230468v-9.164062h-20.230468c.492187 3.035156.492187 6.128906 0 9.164062zm0 0"/><path d="m216.667969 125c0 8.4375-6.84375 15.277344-15.28125 15.277344s-15.277344-6.839844-15.277344-15.277344 6.839844-15.277344 15.277344-15.277344 15.28125 6.839844 15.28125 15.277344zm0 0"/><path d="m63.890625 125c0 8.4375-6.839844 15.277344-15.277344 15.277344s-15.28125-6.839844-15.28125-15.277344 6.84375-15.277344 15.28125-15.277344 15.277344 6.839844 15.277344 15.277344zm0 0"/><path d="m120.417969 156.714844v20.230468h9.164062v-20.230468c-3.035156.492187-6.128906.492187-9.164062 0zm0 0"/><path d="m129.582031 93.285156v-20.230468h-9.164062v20.230468c3.035156-.492187 6.128906-.492187 9.164062 0zm0 0"/><path d="m140.277344 48.613281c0 8.4375-6.839844 15.277344-15.277344 15.277344s-15.277344-6.839844-15.277344-15.277344 6.839844-15.28125 15.277344-15.28125 15.277344 6.84375 15.277344 15.28125zm0 0"/><path d="m140.277344 201.386719c0 8.4375-6.839844 15.28125-15.277344 15.28125s-15.277344-6.84375-15.277344-15.28125 6.839844-15.277344 15.277344-15.277344 15.277344 6.839844 15.277344 15.277344zm0 0"/><path d="m147.917969 125c0 12.65625-10.261719 22.917969-22.917969 22.917969s-22.917969-10.261719-22.917969-22.917969 10.261719-22.917969 22.917969-22.917969 22.917969 10.261719 22.917969 22.917969zm0 0"/></g></svg>

<svg xmlns="http://www.w3.org/2000/svg" xmlns:xlink="http://www.w3.org/1999/xlink" width="250px" height="250px" viewBox="0 0 250 250" version="1.1">
<g id="surface1">
<path style=" stroke:none;fill-rule:nonzero;fill:rgb(9.411765%,34.117648%,54.901963%);fill-opacity:1;" d="M 250 125 C 250 194.035156 194.035156 250 125 250 C 55.964844 250 0 194.035156 0 125 C 0 55.964844 55.964844 0 125 0 C 194.035156 0 250 55.964844 250 125 Z M 250 125 "/>
<path style=" stroke:none;fill-rule:nonzero;fill:rgb(100%,100%,100%);fill-opacity:1;" d="M 112.671875 95.386719 L 96.914062 79.628906 L 79.628906 96.914062 L 95.386719 112.671875 C 98.660156 104.867188 104.867188 98.660156 112.671875 95.386719 Z M 112.671875 95.386719 "/>
<path style=" stroke:none;fill-rule:nonzero;fill:rgb(100%,100%,100%);fill-opacity:1;" d="M 154.613281 137.328125 C 151.339844 145.132812 145.132812 151.339844 137.328125 154.613281 L 153.085938 170.371094 L 170.371094 153.085938 Z M 154.613281 137.328125 "/>
<path style=" stroke:none;fill-rule:nonzero;fill:rgb(100%,100%,100%);fill-opacity:1;" d="M 81.789062 81.789062 C 87.75 75.820312 87.75 66.152344 81.785156 60.1875 C 75.820312 54.222656 66.148438 54.222656 60.183594 60.1875 C 54.21875 66.152344 54.21875 75.820312 60.183594 81.789062 C 66.148438 87.753906 75.820312 87.753906 81.789062 81.789062 Z M 81.789062 81.789062 "/>
<path style=" stroke:none;fill-rule:nonzero;fill:rgb(100%,100%,100%);fill-opacity:1;" d="M 168.210938 168.210938 C 162.25 174.179688 162.25 183.847656 168.214844 189.8125 C 174.179688 195.777344 183.851562 195.777344 189.816406 189.8125 C 195.78125 183.847656 195.78125 174.179688 189.816406 168.210938 C 183.851562 162.246094 174.179688 162.246094 168.210938 168.210938 Z M 168.210938 168.210938 "/>
<path style=" stroke:none;fill-rule:nonzero;fill:rgb(100%,100%,100%);fill-opacity:1;" d="M 95.386719 137.328125 L 79.628906 153.085938 L 96.914062 170.371094 L 112.671875 154.613281 C 104.867188 151.339844 98.660156 145.132812 95.386719 137.328125 Z M 95.386719 137.328125 "/>
<path style=" stroke:none;fill-rule:nonzero;fill:rgb(100%,100%,100%);fill-opacity:1;" d="M 154.613281 112.671875 L 170.371094 96.914062 L 153.085938 79.628906 L 137.328125 95.386719 C 145.132812 98.660156 151.339844 104.867188 154.613281 112.671875 Z M 154.613281 112.671875 "/>
<path style=" stroke:none;fill-rule:nonzero;fill:rgb(100%,100%,100%);fill-opacity:1;" d="M 189.816406 81.789062 C 195.78125 75.820312 195.78125 66.152344 189.816406 60.1875 C 183.851562 54.222656 174.179688 54.222656 168.214844 60.1875 C 162.25 66.152344 162.25 75.820312 168.210938 81.789062 C 174.179688 87.753906 183.851562 87.753906 189.816406 81.789062 Z M 189.816406 81.789062 "/>
<path style=" stroke:none;fill-rule:nonzero;fill:rgb(100%,100%,100%);fill-opacity:1;" d="M 60.183594 168.210938 C 54.21875 174.179688 54.21875 183.847656 60.183594 189.8125 C 66.148438 195.777344 75.820312 195.777344 81.785156 189.8125 C 87.75 183.847656 87.75 174.179688 81.789062 168.210938 C 75.820312 162.246094 66.148438 162.246094 60.183594 168.210938 Z M 60.183594 168.210938 "/>
<path style=" stroke:none;fill-rule:nonzero;fill:rgb(100%,100%,100%);fill-opacity:1;" d="M 93.285156 120.417969 L 73.054688 120.417969 L 73.054688 129.582031 L 93.285156 129.582031 C 92.792969 126.546875 92.792969 123.453125 93.285156 120.417969 Z M 93.285156 120.417969 "/>
<path style=" stroke:none;fill-rule:nonzero;fill:rgb(100%,100%,100%);fill-opacity:1;" d="M 156.714844 129.582031 L 176.945312 129.582031 L 176.945312 120.417969 L 156.714844 120.417969 C 157.207031 123.453125 157.207031 126.546875 156.714844 129.582031 Z M 156.714844 129.582031 "/>
<path style=" stroke:none;fill-rule:nonzero;fill:rgb(100%,100%,100%);fill-opacity:1;" d="M 216.667969 125 C 216.667969 133.4375 209.824219 140.277344 201.386719 140.277344 C 192.949219 140.277344 186.109375 133.4375 186.109375 125 C 186.109375 116.5625 192.949219 109.722656 201.386719 109.722656 C 209.824219 109.722656 216.667969 116.5625 216.667969 125 Z M 216.667969 125 "/>
<path style=" stroke:none;fill-rule:nonzero;fill:rgb(100%,100%,100%);fill-opacity:1;" d="M 63.890625 125 C 63.890625 133.4375 57.050781 140.277344 48.613281 140.277344 C 40.175781 140.277344 33.332031 133.4375 33.332031 125 C 33.332031 116.5625 40.175781 109.722656 48.613281 109.722656 C 57.050781 109.722656 63.890625 116.5625 63.890625 125 Z M 63.890625 125 "/>
<path style=" stroke:none;fill-rule:nonzero;fill:rgb(100%,100%,100%);fill-opacity:1;" d="M 120.417969 156.714844 L 120.417969 176.945312 L 129.582031 176.945312 L 129.582031 156.714844 C 126.546875 157.207031 123.453125 157.207031 120.417969 156.714844 Z M 120.417969 156.714844 "/>
<path style=" stroke:none;fill-rule:nonzero;fill:rgb(100%,100%,100%);fill-opacity:1;" d="M 129.582031 93.285156 L 129.582031 73.054688 L 120.417969 73.054688 L 120.417969 93.285156 C 123.453125 92.792969 126.546875 92.792969 129.582031 93.285156 Z M 129.582031 93.285156 "/>
<path style=" stroke:none;fill-rule:nonzero;fill:rgb(100%,100%,100%);fill-opacity:1;" d="M 140.277344 48.613281 C 140.277344 57.050781 133.4375 63.890625 125 63.890625 C 116.5625 63.890625 109.722656 57.050781 109.722656 48.613281 C 109.722656 40.175781 116.5625 33.332031 125 33.332031 C 133.4375 33.332031 140.277344 40.175781 140.277344 48.613281 Z M 140.277344 48.613281 "/>
<path style=" stroke:none;fill-rule:nonzero;fill:rgb(100%,100%,100%);fill-opacity:1;" d="M 140.277344 201.386719 C 140.277344 209.824219 133.4375 216.667969 125 216.667969 C 116.5625 216.667969 109.722656 209.824219 109.722656 201.386719 C 109.722656 192.949219 116.5625 186.109375 125 186.109375 C 133.4375 186.109375 140.277344 192.949219 140.277344 201.386719 Z M 140.277344 201.386719 "/>
<path style=" stroke:none;fill-rule:nonzero;fill:rgb(100%,100%,100%);fill-opacity:1;" d="M 147.917969 125 C 147.917969 137.65625 137.65625 147.917969 125 147.917969 C 112.34375 147.917969 102.082031 137.65625 102.082031 125 C 102.082031 112.34375 112.34375 102.082031 125 102.082031 C 137.65625 102.082031 147.917969 112.34375 147.917969 125 Z M 147.917969 125 "/>
</g>
</svg>
